!!!COM:	la Rue, Pierre de
!!!CDT:	~1452///-1518/11/20
!!!OTL:	Missa De beata virgine
!!!AGN:	Mass; Credo
!!!SCT:	Rue1008c
!!!SCA:	Rue1008c
!!!voices:	4
!!!voices-OPR:	4
**kern	**kern	**kern	**kern
*staff4	*staff3	*staff2	*staff1
*Ivox	*Ivox	*Ivox	*Ivox
*I"Bassus	*I"Tenor	*I"Contra	*I"Discantus
*I'B	*I'T	*I'C	*I'D
*>[A,B]	*>[A,B]	*>[A,B]	*>[A,B]
*>A	*>A	*>A	*>A
*clefF4	*clefGv2	*clefGv2	*clefG2
*k[]	*k[]	*k[]	*k[]
*M2/1	*M2/1	*M2/1	*M2/1
*met(C|)	*met(C|)	*met(C|)	*met(C|)
!!incipit: 6
!!section: Patrem omnipotentum
!!!OMD: Patrem omnipotentum
=1-	=1-	=1-	=1-
0r	[0A	0e	[0a
=2	=2	=2	=2
0r	0A]	1A	0a_
.	.	1e	.
=3	=3	=3	=3
0r	1D	1d	0a]
.	1A	1c	.
=4	=4	=4	=4
0r	1G	1B	1d
.	1F	1A	1a
=5	=5	=5	=5
0r	1E	0r	1g
.	1D	.	1f
=6	=6	=6	=6
1AA	0A	0r	0e
1C	.	.	.
=7	=7	=7	=7
0D	0r	1r	0d
.	.	1A	.
=8	=8	=8	=8
2E\	0r	1c	0r
1F	.	.	.
.	.	1d	.
4E\	.	.	.
4D\	.	.	.
=9	=9	=9	=9
2C/	0r	2e\	0r
2D\	.	1f	.
1A	.	.	.
.	.	4e\	.
.	.	4d\	.
=10	=10	=10	=10
2G\	1E	2c\	0r
2F\	.	1d	.
1E	1G	.	.
.	.	2c#i\	.
=11	=11	=11	=11
1D	0A	1d	1r
1r	.	1r	1e
=12	=12	=12	=12
0r	2B\	0r	1g
.	1c	.	.
.	.	.	1a
.	4B\	.	.
.	4A/	.	.
=13	=13	=13	=13
0r	2G/	0r	2b\
.	2A/	.	1cc
.	1e	.	.
.	.	.	4b\
.	.	.	4a/
=14	=14	=14	=14
0r	2d\	0r	2b\
.	2c\	.	1a
.	1B	.	.
.	.	.	2g#i/
=15	=15	=15	=15
0r	0A	1r	0a
.	.	2e\	.
.	.	2f\	.
=16	=16	=16	=16
2E\	0r	2g\	0r
2F\	.	2f\	.
2G\	.	1e	.
2F\	.	.	.
=17	=17	=17	=17
[0E	0r	2e\	0r
.	.	2d\	.
.	.	1c	.
=18	=18	=18	=18
1E]	2B\	1e	1r
.	2c\	.	.
1r	2d\	2f\	2b\
.	2c\	2e\	2cc\
=19	=19	=19	=19
0r	1B	1d	2dd\
.	.	.	2cc\
.	2B\	2d\	1b
.	2A/	2d\	.
=20	=20	=20	=20
0r	0G	0d	2b\
.	.	.	2a/
.	.	.	[1g
=21	=21	=21	=21
2E\	1B	0r	0g]
2D\	.	.	.
1C	1c	.	.
=22	=22	=22	=22
2r	2B\	0r	1b
2BB/	2G/	.	.
1AA	2A/	.	1cc
.	[2e\	.	.
=23	=23	=23	=23
2GG/	4e\]	0r	2b\
.	4d\	.	.
2AA/	2c\	.	2a/
2E\	1B	.	2a/
2E\	.	.	2g#i/
=24	=24	=24	=24
0AA	0A	0e	0a
=25	=25	=25	=25
0r	0r	1A	1r
.	.	2d\	[1a
.	.	2d\	.
=26	=26	=26	=26
0D	0r	2d\	1a]
.	.	2c\	.
.	.	2B\	1d
.	.	2A/	.
=27	=27	=27	=27
1GG	0r	1B	2g/
.	.	.	2g/
2C/	.	2c\	2g/
2D\	.	[2A/	2f/
=28	=28	=28	=28
2C/	1r	2A/]	2e/
2BB/	.	2G/	2d/
1AA	1A	[1A	1c
=29	=29	=29	=29
1D	1D	1A]	0d
1GG	2G/	1B	.
.	2G/	.	.
=30	=30	=30	=30
0C	2G/	0c	1.e
.	2A/	.	.
.	2G/	.	.
.	2F/	.	2f/
=31	=31	=31	=31
0r	2E/	0r	2g/
.	2A/	.	1e
.	2G/	.	.
.	2F/	.	2d/
=32	=32	=32	=32
1C	0E	1.c	0e
2AA/	.	.	.
[2C/	.	[2e\	.
=33	=33	=33	=33
2C/]	1E	2e\]	0r
4BB/	.	4d\	.
4AA/	.	4c\	.
1BB	1G	1d	.
=34	=34	=34	=34
0AA	0A	0c	1r
.	.	.	1e
=35	=35	=35	=35
0r	1B	0r	1g
.	1A	.	1a
=36	=36	=36	=36
0r	0e	0r	1b
.	.	.	1cc
=37	=37	=37	=37
0r	2d\	0r	2b\
.	2c\	.	2a/
.	1B	.	2a/
.	.	.	2g#i/
=38	=38	=38	=38
0r	0A	0r	1a
.	.	.	1r
=39	=39	=39	=39
2E\	2G/	2e\	2b\
2E\	2G/	2e\	2cc\
1D	1F	1A	1dd
=40	=40	=40	=40
1AA	1E	1e	1cc
1E	1G	1e	1b
=41	=41	=41	=41
0AA	0E 0A	0e	0a
=42	=42	=42	=42
1r	0C 0A	1r	0a
1AA	.	1E	.
=43	=43	=43	=43
0GG	0D 0B	0G	0d
=44	=44	=44	=44
1AA	1C 1A	2E/	1a
.	.	1e	.
2C/	1A	.	2g/
2D\	.	2d\	[2f/
=45	=45	=45	=45
2E\	2G/	2B\	2f/]
1C	2A/	1c	1e
.	2G/	.	.
2D\	2F/	2A/	2d/
=46	=46	=46	=46
0AA	[0E	0A	[0e
=47	=47	=47	=47
1r	0E]	0r	0e]
1AA	.	.	.
=48	=48	=48	=48
2GG/	0r	1r	0r
2BB/	.	.	.
1D	.	1A	.
=49	=49	=49	=49
1E	1r	2G/	0r
.	.	2B\	.
1r	1D	1d	.
=50	=50	=50	=50
0r	2C/	1e	1r
.	2E/	.	.
.	1G	1r	1d
=51	=51	=51	=51
1r	1A	0r	2c/
.	.	.	2e/
1E	2r	.	1g
.	2B\	.	.
=52	=52	=52	=52
2AA/	2.c\	0r	1a
2C/	.	.	.
.	4B\	.	.
2C/	2A/	.	2r
2BB/	2G/	.	2b\
=53	=53	=53	=53
1AA	1A	1r	2.cc\
.	.	.	4b\
1r	1r	2r	2a/
.	.	2e\	2g/
=54	=54	=54	=54
0r	0r	2.f\	0a
.	.	4e\	.
.	.	2d\	.
.	.	2c\	.
=55	=55	=55	=55
0GG	1B	1d	2.g/
.	.	.	4f/
.	1B	1G	2e/
.	.	.	2d/
=56	=56	=56	=56
1AA	1A	1E	0c
1AA	[1A	1E	.
=57	=57	=57	=57
0AA	1A]	1E	1r
.	1A	1c	1e
=58	=58	=58	=58
1D	1.A	1d	1.f
2F\	.	2c\	.
2C/	2G/	2c\	[2e/
=59	=59	=59	=59
1D	1F	[0A	2e/]
.	.	.	1d
1AA	1E	.	.
.	.	.	2c#i/
=60	=60	=60	=60
0r	0D	0A]	0d
=61	=61	=61	=61
2D\	1r	0r	0r
2C/	.	.	.
2D\	2A/	.	.
2E\	2G/	.	.
=62	=62	=62	=62
2F\	2A/	0r	2a/
2G\	2B\	.	2g/
1F	1c	.	2a/
.	.	.	2b\
=63	=63	=63	=63
0r	1A	2c\	1cc
.	.	2c\	.
.	1G	2d\	1b
.	.	2e\	.
=64	=64	=64	=64
0r	0r	1f	0a
.	.	1f	.
=65	=65	=65	=65
2C/	2c\	2e\	2g/
2C/	2c\	2e\	2g/
2C/	2c\	2e\	2g/
2F\	2c\	2A/	2f/
=66	=66	=66	=66
1C	1c	2G/	2.e/
.	.	2c\	.
.	.	.	4d/
1F	1A	1c	2c/
.	.	.	[2f/
=67	=67	=67	=67
1C	1G	1c	2f/]
.	.	.	1e
1D	1F	2r	.
.	.	2A/	2d/
=68	=68	=68	=68
2r	1E	2c\	0e
2AA/	.	2c\	.
2C/	2r	2c\	.
2C/	2E/	2c\	.
=69	=69	=69	=69
2C/	2G/	2e\	1r
2BB/	2G/	2d\	.
1AA	1A	1c	2r
.	.	.	2e/
=70	=70	=70	=70
1GG	1B	0d	2g/
.	.	.	2g/
[1D	1A	.	2a/
.	.	.	2a/
=71	=71	=71	=71
1D]	1F	0A	1d
1AA	1E	.	1c#i
=72	=72	=72	=72
0r	0D	0r	0d
=73	=73	=73	=73
2D\	0r	0r	0r
2C/	.	.	.
2D\	.	.	.
2E\	.	.	.
=74	=74	=74	=74
2F\	2A/	0r	0r
2E\	2G/	.	.
1D	2A/	.	.
.	2B\	.	.
=75	=75	=75	=75
1r	2c\	0r	0r
.	2B\	.	.
1D	1A	.	.
=76	=76	=76	=76
2D\	1A	1d	0r
2D\	.	.	.
1D	2A/	2d\	.
.	2A/	2d\	.
=77	=77	=77	=77
1AA	1A	1c	1a
1r	1D	1d	2a/
.	.	.	2a/
=78	=78	=78	=78
1AA	1E	1c	1a
1D	1F	2A/	1d
.	.	2B\	.
=79	=79	=79	=79
1C	1G	1c	1e
1r	1r	1A	1f
=80	=80	=80	=80
1r	0r	0G	0g
[1C	.	.	.
=81	=81	=81	=81
1C]	0r	1c	2g/
.	.	.	2a/
2E\	.	2c\	2g/
2F\	.	2c\	2f/
=82	=82	=82	=82
1.C	2G/	1.c	1.e
.	2A/	.	.
.	2G/	.	.
2D\	2F/	2A/	2d/
=83	=83	=83	=83
0AA	0E	0A	0c
=84	=84	=84	=84
0r	0D	1r	1r
.	.	1d	1f
=85	=85	=85	=85
0r	0r	2c\	2e/
.	.	2d\	2f/
.	.	2c\	2g/
.	.	2B\	2g/
=86	=86	=86	=86
0r	0r	2A/	2a/
.	.	2A/	2a/
.	.	1c	2e/
.	.	.	[2g/
=87	=87	=87	=87
0r	0r	2B\	2g/]
.	.	2A/	2f/
.	.	1c	1e
=88	=88	=88	=88
1r	1r	1d	1d
1D	2d\	2r	2r
.	2d\	[2f\	[2a/
=89	=89	=89	=89
1D	1.d	2f\]	2a/]
.	.	2f\	2a/
2GG/	.	2g\	2b\
2AA/	2c\	2e\	[2a/
=90	=90	=90	=90
2BB/	1B	1d	2a/]
2GG/	.	.	1g
1D	1A	1d	.
.	.	.	2f#i/
=91	=91	=91	=91
1GG	1G	1B	1g
2r	1G	2r	2r
2C/	.	2c\	2e/
=92	=92	=92	=92
2C/	2G/	2c\	2e/
2F\	2A/	2c\	2f/
2C/	2G/	2c\	2e/
2D\	2F/	2A/	2d/
=93	=93	=93	=93
0AAl	0El	0Al	0cl
!!LO:LB:i:g=z
=94||	=94||	=94||	=94||
*>B	*>B	*>B	*>B
*clefF4	*clefGv2	*clefGv2	*clefG2
*k[]	*k[]	*k[]	*k[]
*M2/1	*M2/1	*M2/1	*M2/1
*met(C|)	*met(C|)	*met(C|)	*met(C|)
!!section: Crucifixus
!!!OMD: Crucifixus
1D	1r	0r	0r
2C/	1A	.	.
2D\	.	.	.
=95	=95	=95	=95
0E	2G/	0r	1r
.	2A/	.	.
.	1B	.	2r
.	.	.	2g/
=96	=96	=96	=96
0r	0r	2r	2a/
.	.	2G/	2b\
.	.	2A/	2cc\
.	.	2B\	2b\
=97	=97	=97	=97
2r	2r	2.c\	2a/
2AA/	2A/	.	2e/
.	.	4B\	.
2AA/	2c\	2A/	2a/
2BB/	2B\	2d\	2d/
=98	=98	=98	=98
2C/	2A/	2c\	2e/
2D\	2A/	2A/	2f/
1GG	1G	2B\	1g
.	.	2B\	.
=99	=99	=99	=99
0AA	1E	1A	0c
.	1r	1c	.
=100	=100	=100	=100
2D\	2A/	2d\	2f/
2AA/	2A/	2c\	2e/
2D\	1A	2d\	2f/
2AA/	.	2c\	[2e/
=101	=101	=101	=101
2C/	2G/	2c\	2e/]
2D\	2F/	2A/	1d
1AA	1E	1A	.
.	.	.	2c#i/
=102	=102	=102	=102
1r	0D	0r	0d
[1D	.	.	.
=103	=103	=103	=103
1D]	1r	0r	0r
2C/	1A	.	.
2AA/	.	.	.
=104	=104	=104	=104
1BB	2G/	0r	0r
.	2F/	.	.
1C	1E	.	.
=105	=105	=105	=105
0D	1D	0r	0r
.	2A/	.	.
.	2B\	.	.
=106	=106	=106	=106
2AA/	2c\	0r	1r
2BB/	2B\	.	.
2C/	1A	.	2a/
2BB/	.	.	2b\
=107	=107	=107	=107
0AA	1r	1r	2.cc\
.	.	.	4b\
.	1A	1c	2a/
.	.	.	2a/
=108	=108	=108	=108
0r	1B	1d	1g
.	2A/	2c\	2f/
.	[2G/	[2B\	[2e/
=109	=109	=109	=109
0r	2G/]	2B\]	2e/]
.	2F/	1A	1d
.	1E	.	.
.	.	2G/	2c#i/
=110	=110	=110	=110
2r	1D	2A/	1d
2F\	.	2A/	.
2E\	1r	2B\	1r
2E\	.	2c\	.
=111	=111	=111	=111
1D	2r	1d	2r
.	2B\	.	2d/
1r	2A/	1r	2e/
.	2A/	.	2f/
=112	=112	=112	=112
2r	1G	2r	1g
2G\	.	2d\	.
1F	1r	1d	1r
=113	=113	=113	=113
0E	2r	0e	2r
.	2c\	.	2g/
.	1B	.	1g
=114	=114	=114	=114
2r	2A/	0r	1a
2D\	2A/	.	.
2E\	2G/	.	1r
2F\	2A/	.	.
=115	=115	=115	=115
2D\	2B\	0r	1r
2AA/	2c\	.	.
2BB/	2B\	.	1dd
2BB/	2G/	.	.
=116	=116	=116	=116
0AA	0A	0r	2.cc\
.	.	.	4b\
.	.	.	2a/
.	.	.	2cc\
=117	=117	=117	=117
0r	0r	1d	2b\
.	.	.	2b\
.	.	2.c\	2a/
.	.	.	2a/
.	.	4B\	.
=118	=118	=118	=118
0r	0r	2A/	2.cc\
.	.	2A/	.
.	.	.	4b\
.	.	2c\	2a/
.	.	2B\	2g/
=119	=119	=119	=119
0r	0r	2A/	1a
.	.	2A/	.
.	.	2d\	1f
.	.	2d\	.
=120	=120	=120	=120
1AA	1r	2c\	1e
.	.	2c\	.
[1AA	1E	2c\	1r
.	.	2c\	.
=121	=121	=121	=121
1AA]	1C	0A	1e
2C/	2E/	.	2c/
[2D\	2F/	.	[2f/
=122	=122	=122	=122
2D\]	2G/	0r	2f/]
2C/	1A	.	2e/
1BB	.	.	1d
.	2G#i/	.	.
=123	=123	=123	=123
1AA	0A	0r	0c
2AA/	.	.	.
2AA/	.	.	.
=124	=124	=124	=124
2C/	2A/	0r	0r
2C/	2E/	.	.
2C/	2A/	.	.
2BB/	2B\	.	.
=125	=125	=125	=125
1.AA	1.c	0r	2a/
.	.	.	2e/
.	.	.	2a/
2GG/	2B\	.	2b\
=126	=126	=126	=126
1AA	1A	1.e	1.cc
1r	1G	.	.
.	.	2d\	2b\
=127	=127	=127	=127
0r	1A	1c	1a
.	1r	1B	1g#i
=128	=128	=128	=128
1r	1r	0A	0a
1AA	1A	.	.
=129	=129	=129	=129
1BB	1D	0r	0r
2AA/	2E/	.	.
2AA/	2F/	.	.
=130	=130	=130	=130
1GG	1G	0r	0r
2r	1G	.	.
[2C/	.	.	.
=131	=131	=131	=131
2C/]	1A	0r	0r
2C/	.	.	.
2C/	2G/	.	.
2D\	2F/	.	.
=132	=132	=132	=132
0AA	1E	1A	1c
.	1r	2c\	2e/
.	.	2d\	2f/
=133	=133	=133	=133
0r	0r	2.e\	2.g/
.	.	4d\	4f/
.	.	2c\	2e/
.	.	2B\	2d/
=134	=134	=134	=134
1AA	1E	1A	2c/
.	.	.	2c/
2D\	2F/	2A/	2d/
2C/	2E/	2A/	2e/
=135	=135	=135	=135
1D	1A	2d\	1f
.	.	2d\	.
2AA/	2A/	2c\	1e
2AA/	2A/	2c\	.
=136	=136	=136	=136
1D	1.A	2d\	2f/
.	.	2A/	2d/
1C	.	1c	1e
.	2G/	.	.
=137	=137	=137	=137
1D	1F	1A	2f/
.	.	.	1d
1AA	1E	1A	.
.	.	.	2c#i/
=138	=138	=138	=138
0D	0D	0r	0d
=139	=139	=139	=139
*M3/1	*M3/1	*M3/1	*M3/1
*met(3)	*met(3)	*met(3)	*met(3)
0.r	0.r	1d	0.r
.	.	1d	.
.	.	1B	.
=140	=140	=140	=140
0.r	0.r	0c	0a
.	.	1d	1f
=141	=141	=141	=141
0.r	0.r	1e	1g
.	.	0e	1g
.	.	.	1b
=142	=142	=142	=142
0.r	0.r	0A	1cc
.	.	.	0cc
.	.	1r	.
=143	=143	=143	=143
0.r	0.r	1A	0a
.	.	1A	.
.	.	1G	1r
=144	=144	=144	=144
0.r	0.r	1A	1a
.	.	0c	1a
.	.	.	1g
=145	=145	=145	=145
0.r	0.r	0.A	1a
.	.	.	0cc
=146	=146	=146	=146
0.r	0d	0.r	0.a
.	1c	.	.
=147	=147	=147	=147
0G	0B	0.r	0.r
1F	1A	.	.
=148	=148	=148	=148
0E	1G	0.r	0.r
.	0F	.	.
1D	.	.	.
=149	=149	=149	=149
1C	1E	0.r	0.r
0BB	1r	.	.
.	1r	.	.
=150	=150	=150	=150
*M2/1	*M2/1	*M2/1	*M2/1
*met(C|)	*met(C|)	*met(C|)	*met(C|)
2AA/	1E	1A	1e
2AA/	.	.	.
2AA/	2E/	2A/	2e/
2AA/	2E/	2A/	2e/
=151	=151	=151	=151
1BB	2G/	1D	1d
.	2G/	.	.
2AA/	1A	2E/	2c/
2AA/	.	[2A/	[2f/
=152	=152	=152	=152
1BB	1D	2A/]	4f/]
.	.	.	4e/
.	.	2G/	1d
1AA	1E	1A	.
.	.	.	2c#i/
=153	=153	=153	=153
1D	0D	0A	0d
1r	.	.	.
=154	=154	=154	=154
*M3/1	*M3/1	*M3/1	*M3/1
*met(3)	*met(3)	*met(3)	*met(3)
1D	0.r	0.r	0.r
1D	.	.	.
1D	.	.	.
=155	=155	=155	=155
1D	1A	0.r	0.r
0C	1A	.	.
.	1A	.	.
=156	=156	=156	=156
1AA	1A	0.r	0.r
1BB	0G	.	.
1C	.	.	.
=157	=157	=157	=157
1D	1F	0.r	0.r
2r	1E	.	.
2G\	.	.	.
1G	1E	.	.
=158	=158	=158	=158
1F	1D	0.r	0.r
1F	2r	.	.
.	2d\	.	.
1D	1d	.	.
=159	=159	=159	=159
1.F	1d	0.r	0.r
.	1c	.	.
2E\	.	.	.
1D	1B	.	.
=160	=160	=160	=160
1.C	0.c	0.r	0.r
2D\	.	.	.
1E	.	.	.
=161	=161	=161	=161
0F	1A	1r	1r
.	1G	1r	1r
1E	1G	1B	1g
=162	=162	=162	=162
0.F	0.F	1.A	1.a
.	.	2B\	2a/
.	.	1c	1a
=163	=163	=163	=163
0.r	0.r	1.d	1.d
.	.	2c\	2e/
.	.	2B\	1f
.	.	2A/	.
=164	=164	=164	=164
0.r	0.r	0G	1.g
.	.	.	2f/
.	.	1G	2e/
.	.	.	2d/
=165	=165	=165	=165
0.r	0.r	1.A	0c
.	.	2G/	.
.	.	2F/	1r
.	.	2E/	.
=166	=166	=166	=166
1D	1A	1D	1f
1D	1A	1d	1f
1D	1A	1d	1f
=167	=167	=167	=167
1AA	1A	1c	1e
0D	0A	1d	0f
.	.	1d	.
=168	=168	=168	=168
0GG	0.G	1d	1g
.	.	1.e	0g
1r	.	.	.
.	.	2d\	.
=169	=169	=169	=169
0.r	1r	0d	1f
.	1r	.	0e
.	1A	1c#i	.
=170	=170	=170	=170
*M2/1	*M2/1	*M2/1	*M2/1
*met(C|)	*met(C|)	*met(C|)	*met(C|)
0r	2B\	1d	1d
.	2c\	.	.
.	1d	1r	1r
=171	=171	=171	=171
2D\	0r	2f\	2r
2D\	.	2f\	2a/
2D\	.	2f\	2b\
2C/	.	2e\	2cc\
=172	=172	=172	=172
2.BB/	2d\	2.d\	1dd
.	2d\	.	.
4AA/	.	4c\	.
[1GG	2d\	2.B\	1r
.	2c\	.	.
.	.	4A/	.
=173	=173	=173	=173
0GG]	2.B\	1G	2dd\
.	.	.	2dd\
.	4A/	.	.
.	[1G	[1d	2.dd\
.	.	.	4cc\
=174	=174	=174	=174
1r	1G]	1d]	2b\
.	.	.	2a/
[1G	[1d	2G/	2g/
.	.	[2g\	[2b\
=175	=175	=175	=175
2G\]	2d\]	2g\]	2b\]
2A\	2c\	2f\	2a/
1E	1B	1e	2.a/
.	.	.	4g#i/
=176	=176	=176	=176
1AA	[0A	1c	0a
1D	.	2r	.
.	.	2f\	.
=177	=177	=177	=177
2C/	0A]	2e\	1r
2BB/	.	2d\	.
1AA	.	2c\	1a
.	.	2f\	.
=178	=178	=178	=178
0r	0r	2e\	2g/
.	.	2d\	2f/
.	.	1c	2e/
.	.	.	2a/
=179	=179	=179	=179
2r	0r	2B\	2g/
2D\	.	1A	2f/
2C/	.	.	2e/
2BB/	.	2d\	[2f/
=180	=180	=180	=180
1AA	1A	1c	2f/]
.	.	.	1e
2r	2G/	2B\	.
2D\	2F/	2A/	2d/
=181	=181	=181	=181
2C/	2E/	2r	1e
2AA/	2A/	1e	.
2C/	2G/	.	1r
2D\	2F/	2d\	.
=182	=182	=182	=182
0AA	1E	2c\	0r
.	.	2.e\	.
.	1A	.	.
.	.	4c\	.
.	.	2f\	.
=183	=183	=183	=183
0r	2G/	2e\	0r
.	2F/	1d	.
.	1E	.	.
.	.	2c#i\	.
=184	=184	=184	=184
1r	1D	0d	0r
1D	2r	.	.
.	2D/	.	.
=185	=185	=185	=185
2C/	2E/	1r	1r
2BB/	2E/	.	.
1AA	1F	2.c\	1a
.	.	4d\	.
=186	=186	=186	=186
[0GG	[0G	4e\	1b
.	.	4f\	.
.	.	1g	.
.	.	.	1b
.	.	2g\	.
=187	=187	=187	=187
0GG]	0G]	2d\	1.b
.	.	1g	.
.	.	4f\	2a/
.	.	4e\	.
=188	=188	=188	=188
1GG	1.B	0d	1g
2r	.	.	1f
2D\	2A/	.	.
=189	=189	=189	=189
2E\	1G	1r	1e
2C/	.	.	.
1D	1F	2r	1d
.	.	[2A/	.
=190	=190	=190	=190
1AA	2r	4A/]	1c
.	.	4B\	.
.	2E/	2c\	.
2r	2F/	2d\	2r
2AA/	2E/	2A/	2c/
=191	=191	=191	=191
2BB/	1r	2r	1d
2GG/	.	2B\	.
1AA	2r	2c\	2r
.	2E/	2A/	2c/
=192	=192	=192	=192
2r	2F/	2r	2d/
2AA/	2E/	2A/	2c/
2BB/	2r	2G/	2r
2AA/	2E/	2A/	2c/
=193	=193	=193	=193
2r	2D/	2r	2d/
2AA/	2E/	1A	2c/
2D\	2F/	.	2d/
2GG/	[2G/	[2B\	[2e/
=194	=194	=194	=194
1BB	4G/]	2B\]	2e/]
.	4F/	.	.
.	2D/	2G/	1d
1AA	1E	[1Al	.
.	.	.	2c#i/
=195	=195	=195	=195
0Dl	0Dl	0A]	0dl
==	==	==	==
*-	*-	*-	*-
!!!RDF**kern: l=long note in original notation
!!!RDF**kern: i=editorial accidental
!!!RDF**kern: V=start of tuplet marker
!!!RDF**kern: Z=end of tuplet marker
!!!ENC:	Chris Gage 09-18-2012
!!!END:	2012/09/18/
!!!EED:	Jesse Rodin
!!!EEV:	2012/09/28/
!!!ONB:	Translated from MusicXML and edited on 2012/09/28/ by Craig Sapp
!!muse2ps: C^@{COM}^i2I150v85,85,85,150Q8c130
